; generated by Slic3r 1.0.0RC2 on 2016-09-06 at 12:50:33

; layer_height = 0.6
; perimeters = 3
; top_solid_layers = 3
; bottom_solid_layers = 3
; fill_density = 0.4
; perimeter_speed = 30
; infill_speed = 60
; travel_speed = 130
; nozzle_diameter = 0.7
; filament_diameter = 3
; extrusion_multiplier = 1
; perimeters extrusion width = 0.70mm
; infill extrusion width = 0.73mm
; solid infill extrusion width = 0.73mm
; top infill extrusion width = 0.73mm
; first layer extrusion width = 1.40mm

G21 ; set units to millimeters
M107
M190 S30 ; wait for bed temperature to be reached
M104 S165 ; set temperature
G28 ; home all axes
G1 Z5 F5000 ; lift nozzle
M109 S165 ; wait for temperature to be reached
G90 ; use absolute coordinates
G92 E0
M82 ; use absolute distances for extrusion
G1 F1800.000 E-1.00000
G92 E0
G1 Z0.700 F7800.000
G1 X42.370 Y44.740 F7800.000
G1 E1.00000 F1800.000
G1 X43.470 Y43.840 E1.17590 F540.000
G1 X44.730 Y43.170 E1.35252
G1 X46.090 Y42.760 E1.52833
G1 X47.500 Y42.620 E1.70369
G1 X67.500 Y42.620 E4.17900
G1 X68.910 Y42.760 E4.35437
G1 X70.270 Y43.170 E4.53017
G1 X71.530 Y43.840 E4.70679
G1 X72.630 Y44.740 E4.88269
G1 X73.530 Y45.840 E5.05860
G1 X74.200 Y47.100 E5.23522
G1 X74.610 Y48.460 E5.41102
G1 X74.750 Y49.870 E5.58639
G1 X74.750 Y70.120 E8.09264
G1 X74.610 Y71.530 E8.26800
G1 X74.200 Y72.890 E8.44381
G1 X73.530 Y74.150 E8.62043
G1 X72.630 Y75.250 E8.79633
G1 X71.530 Y76.150 E8.97223
G1 X70.270 Y76.820 E9.14885
G1 X68.910 Y77.230 E9.32466
G1 X67.500 Y77.370 E9.50002
G1 X47.500 Y77.370 E11.97533
G1 X46.090 Y77.230 E12.15070
G1 X44.730 Y76.820 E12.32650
G1 X43.470 Y76.150 E12.50312
G1 X42.370 Y75.250 E12.67902
G1 X41.470 Y74.150 E12.85493
G1 X40.800 Y72.890 E13.03155
G1 X40.390 Y71.530 E13.20735
G1 X40.250 Y70.120 E13.38272
G1 X40.250 Y49.870 E15.88896
G1 X40.390 Y48.460 E16.06433
G1 X40.800 Y47.100 E16.24013
G1 X41.470 Y45.840 E16.41676
G1 X42.251 Y44.885 E16.56946
G1 F1800.000 E15.56946
G92 E0
G1 X50.700 Y53.073 F7800.000
G1 E1.00000 F1800.000
G1 X64.300 Y53.073 E2.68332 F540.000
G1 X64.300 Y66.927 E4.39790
G1 X50.700 Y66.927 E6.08122
G1 X50.700 Y53.261 E7.77260
G1 X49.450 Y51.823 F7800.000
G1 X65.550 Y51.823 E9.76527 F540.000
G1 X65.550 Y68.177 E11.78921
G1 X49.450 Y68.177 E13.78189
G1 X49.450 Y52.011 E15.78263
G1 X48.200 Y50.574 F7800.000
G1 X66.800 Y50.574 E18.08466 F378.000
G1 X66.800 Y69.426 E20.41796
G1 X48.200 Y69.426 E22.72000
G1 X48.200 Y50.761 E25.03009
G1 X49.282 Y51.199 F7800.000
G1 X63.459 Y54.044 F7800.000
G1 X63.330 Y53.915 E25.05362 F1080.000
G1 X61.496 Y53.915 E25.28892
G1 X63.459 Y55.877 E25.64520
G1 X63.459 Y57.710 E25.88050
G1 X59.663 Y53.915 E26.56955
G1 X57.830 Y53.915 E26.80485
G1 X63.459 Y59.543 E27.82665
G1 X63.459 Y61.376 E28.06195
G1 X55.997 Y53.915 E29.41652
G1 X54.164 Y53.915 E29.65182
G1 X63.459 Y63.210 E31.33915
G1 X63.459 Y65.043 E31.57444
G1 X52.331 Y53.915 E33.59453
G1 X51.541 Y54.957 E33.76248
G1 X62.669 Y66.085 E35.78258
G1 X60.836 Y66.085 E36.01787
G1 X51.541 Y56.790 E37.70520
G1 X51.541 Y58.624 E37.94050
G1 X59.003 Y66.085 E39.29507
G1 X57.170 Y66.085 E39.53037
G1 X51.541 Y60.457 E40.55218
G1 X51.541 Y62.290 E40.78748
G1 X55.337 Y66.085 E41.47653
G1 X53.504 Y66.085 E41.71182
G1 X51.541 Y64.123 E42.06811
G1 X51.541 Y65.956 E42.30341
G1 X51.670 Y66.085 E42.32694
M106 S255
M104 S160 ; set temperature
G1 F1800.000 E41.32694
G92 E0
G1 Z1.300 F7800.000
G1 X49.250 Y68.982 F7800.000
G1 E1.00000 F1800.000
G1 X49.250 Y51.018 E2.06738 F831.560
G1 X65.750 Y51.018 E3.04778
G1 X65.750 Y68.982 E4.11516
G1 X49.355 Y68.982 E5.08931
G1 X48.550 Y69.682 F7800.000
G1 X48.550 Y50.318 E6.23988 F831.560
G1 X66.450 Y50.318 E7.30346
G1 X66.450 Y69.682 E8.45403
G1 X48.655 Y69.682 E9.51137
G1 X47.850 Y70.382 F7800.000
M106 S255
G1 X47.850 Y70.126 E9.52529 F3600
M106 S255
G1 X47.850 Y49.874 E10.72866 F600.000
M106 S255
G1 X47.850 Y49.618 E10.74258 F3600
G1 X67.150 Y49.618 E11.79336
G1 X67.150 Y49.874 E11.80728
M106 S255
G1 X67.150 Y70.126 E13.01064 F600.000
M106 S255
G1 X67.150 Y70.382 E13.02456 F3600
G1 X47.955 Y70.382 E14.06963
M106 S255
G1 X48.200 Y69.776 F7800.000
G1 X65.273 Y68.431 F7800.000
G1 X65.199 Y68.505 E14.07619 F1663.120
G1 X64.154 Y68.505 E14.14179
G1 X65.273 Y67.386 E14.24113
G1 X65.273 Y66.340 E14.30673
G1 X63.108 Y68.505 E14.49884
G1 X62.063 Y68.505 E14.56444
G1 X65.273 Y65.295 E14.84933
G1 X65.273 Y64.250 E14.91494
G1 X61.018 Y68.505 E15.29260
G1 X59.972 Y68.505 E15.35820
G1 X65.273 Y63.204 E15.82865
G1 X65.273 Y62.159 E15.89425
G1 X58.927 Y68.505 E16.45747
G1 X57.881 Y68.505 E16.52307
G1 X65.273 Y61.113 E17.17906
G1 X65.273 Y60.068 E17.24467
G1 X56.836 Y68.505 E17.99344
G1 X55.790 Y68.505 E18.05904
G1 X65.273 Y59.022 E18.90059
G1 X65.273 Y57.977 E18.96619
G1 X54.745 Y68.505 E19.90051
G1 X53.699 Y68.505 E19.96612
G1 X65.273 Y56.931 E20.99321
G1 X65.273 Y55.886 E21.05882
G1 X52.654 Y68.505 E22.17869
G1 X51.608 Y68.505 E22.24430
G1 X65.273 Y54.840 E23.45695
G1 X65.273 Y53.795 E23.52255
G1 X50.563 Y68.505 E24.82798
G1 X49.727 Y68.296 E24.88207
G1 X65.273 Y52.749 E26.26170
G1 X65.273 Y51.704 E26.32730
G1 X49.727 Y67.251 E27.70693
G1 X49.727 Y66.205 E27.77254
G1 X64.437 Y51.495 E29.07796
G1 X63.392 Y51.495 E29.14356
G1 X49.727 Y65.160 E30.35621
G1 X49.727 Y64.114 E30.42182
G1 X62.346 Y51.495 E31.54169
G1 X61.301 Y51.495 E31.60729
G1 X49.727 Y63.069 E32.63439
G1 X49.727 Y62.023 E32.69999
G1 X60.255 Y51.495 E33.63431
G1 X59.210 Y51.495 E33.69991
G1 X49.727 Y60.978 E34.54145
G1 X49.727 Y59.932 E34.60706
G1 X58.164 Y51.495 E35.35582
G1 X57.119 Y51.495 E35.42143
G1 X49.727 Y58.887 E36.07742
G1 X49.727 Y57.841 E36.14302
G1 X56.073 Y51.495 E36.70623
G1 X55.028 Y51.495 E36.77184
G1 X49.727 Y56.796 E37.24227
G1 X49.727 Y55.750 E37.30788
G1 X53.982 Y51.495 E37.68554
G1 X52.937 Y51.495 E37.75114
G1 X49.727 Y54.705 E38.03603
G1 X49.727 Y53.660 E38.10163
G1 X51.892 Y51.495 E38.29374
G1 X50.846 Y51.495 E38.35934
G1 X49.727 Y52.614 E38.45868
G1 X49.727 Y51.569 E38.52428
G1 X49.801 Y51.495 E38.53083
G1 F1800.000 E37.53083
G92 E0
G1 Z1.900 F7800.000
G1 X49.950 Y51.491 F7800.000
G1 E1.00000 F1800.000
G1 X65.050 Y51.491 E1.89721 F1000.625
G1 X65.050 Y57.882 E2.27694
G1 X67.500 Y57.882 E2.42252
M106 S255
G1 X67.550 Y57.882 E2.42524 F3600
G1 X67.550 Y62.118 E2.65585
G1 X67.500 Y62.118 E2.65858
M106 S255
G1 X65.050 Y62.118 E2.80415 F1000.625
G1 X65.050 Y68.509 E3.18388
G1 X49.950 Y68.509 E4.08109
G1 X49.950 Y51.596 E5.08600
G1 X49.250 Y50.791 F7800.000
G1 X65.750 Y50.791 E6.06640 F1000.625
G1 X65.750 Y57.182 E6.44613
G1 X67.500 Y57.182 E6.55012
M106 S255
G1 X68.250 Y57.182 E6.59095 F3600
G1 X68.250 Y62.818 E6.89778
G1 X67.500 Y62.818 E6.93862
M106 S255
G1 X65.750 Y62.818 E7.04260 F1000.625
G1 X65.750 Y69.209 E7.42233
G1 X49.250 Y69.209 E8.40273
G1 X49.250 Y50.896 E9.49082
G1 X48.550 Y50.091 F7800.000
G1 X66.450 Y50.091 E10.55440 F1000.625
G1 X66.450 Y56.482 E10.93414
G1 X67.500 Y56.482 E10.99653
M106 S255
G1 X68.950 Y56.482 E11.07547 F3600
G1 X68.950 Y63.518 E11.45853
G1 X67.500 Y63.518 E11.53747
M106 S255
G1 X66.450 Y63.518 E11.59986 F1000.625
G1 X66.450 Y69.909 E11.97960
G1 X48.550 Y69.909 E13.04318
G1 X48.550 Y50.196 E14.21446
G1 X47.850 Y49.391 F7800.000
G1 X67.150 Y49.391 E15.36122 F700.437
G1 X67.150 Y55.782 E15.74096
G1 X67.500 Y55.782 E15.76175
M106 S255
G1 X69.650 Y55.782 E15.87881 F3600
G1 X69.650 Y64.218 E16.33809
G1 X67.500 Y64.218 E16.45514
M106 S255
G1 X67.150 Y64.218 E16.47594 F700.437
G1 X67.150 Y70.609 E16.85567
G1 X47.850 Y70.609 E18.00244
G1 X47.850 Y49.496 E19.25690
G1 X48.456 Y49.741 F7800.000
G1 X64.573 Y52.041 F7800.000
G1 X64.500 Y51.968 E19.26335 F2001.250
G1 X63.463 Y51.968 E19.32785
G1 X64.573 Y53.078 E19.42552
G1 X64.573 Y54.115 E19.49002
G1 X62.426 Y51.968 E19.67891
G1 X61.390 Y51.968 E19.74341
G1 X64.573 Y55.151 E20.02351
G1 X64.573 Y56.188 E20.08801
G1 X60.353 Y51.968 E20.45934
G1 X59.316 Y51.968 E20.52384
G1 X64.573 Y57.225 E20.98638
G1 X67.073 Y58.688 F7800.000
G1 X66.744 Y58.359 E21.01533 F2001.250
G1 X65.707 Y58.359 E21.07983
G1 X67.073 Y59.725 E21.19999
G1 X67.073 Y60.761 E21.26449
G1 X58.280 Y51.968 E22.03824
G1 X57.243 Y51.968 E22.10274
G1 X66.916 Y61.641 E22.95388
G1 X65.879 Y61.641 E23.01838
G1 X56.206 Y51.968 E23.86951
G1 X55.170 Y51.968 E23.93401
G1 X64.842 Y61.641 E24.78515
G1 X64.573 Y62.408 E24.83574
G1 X54.133 Y51.968 E25.75438
G1 X53.097 Y51.968 E25.81888
G1 X64.573 Y63.445 E26.82874
G1 X64.573 Y64.481 E26.89324
G1 X52.060 Y51.968 E27.99432
G1 X51.023 Y51.968 E28.05882
G1 X64.573 Y65.518 E29.25112
G1 X64.573 Y66.555 E29.31562
G1 X50.427 Y52.409 E30.56038
G1 X50.427 Y53.445 E30.62489
G1 X64.573 Y67.591 E31.86965
G1 X63.977 Y68.032 E31.91577
G1 X50.427 Y54.482 E33.10807
G1 X50.427 Y55.519 E33.17257
G1 X62.940 Y68.032 E34.27365
G1 X61.904 Y68.032 E34.33815
G1 X50.427 Y56.555 E35.34802
G1 X50.427 Y57.592 E35.41252
G1 X60.867 Y68.032 E36.33116
G1 X59.830 Y68.032 E36.39566
G1 X50.427 Y58.629 E37.22309
G1 X50.427 Y59.665 E37.28759
G1 X58.794 Y68.032 E38.02380
G1 X57.757 Y68.032 E38.08830
G1 X50.427 Y60.702 E38.73328
G1 X50.427 Y61.739 E38.79779
G1 X56.720 Y68.032 E39.35155
G1 X55.684 Y68.032 E39.41605
G1 X50.427 Y62.775 E39.87860
G1 X50.427 Y63.812 E39.94310
G1 X54.647 Y68.032 E40.31443
G1 X53.610 Y68.032 E40.37893
G1 X50.427 Y64.849 E40.65904
G1 X50.427 Y65.885 E40.72354
G1 X52.574 Y68.032 E40.91243
G1 X51.537 Y68.032 E40.97693
G1 X50.427 Y66.922 E41.07460
G1 X50.427 Y67.958 E41.13910
G1 X50.500 Y68.032 E41.14555
G1 F1800.000 E40.14555
G92 E0
G1 Z2.500 F7800.000
G1 X49.250 Y69.250 F7800.000
G1 E1.00000 F1800.000
G1 X49.250 Y50.750 E2.09923 F744.255
G1 X65.750 Y50.750 E3.07962
G1 X65.750 Y56.313 E3.41018
G1 X66.250 Y56.313 E3.43989
G1 X66.250 Y63.687 E3.87801
G1 X65.750 Y63.687 E3.90772
G1 X65.750 Y69.250 E4.23827
G1 X49.355 Y69.250 E5.21243
G1 X48.550 Y69.950 F7800.000
G1 X48.550 Y50.050 E6.39484 F744.255
G1 X66.450 Y50.050 E7.45842
G1 X66.450 Y55.613 E7.78897
G1 X66.950 Y55.613 E7.81868
G1 X66.950 Y64.387 E8.33999
G1 X66.450 Y64.387 E8.36970
G1 X66.450 Y69.950 E8.70026
G1 X48.655 Y69.950 E9.75760
G1 X47.850 Y70.650 F7800.000
G1 X47.850 Y49.350 E11.02320 F600.000
G1 X67.150 Y49.350 E12.16996
G1 X67.150 Y54.913 E12.50051
G1 X67.500 Y54.913 E12.52131
M106 S255
G1 X67.650 Y54.913 E12.52948 F3600
G1 X67.650 Y55.432 E12.55773
M106 S255
G1 X67.650 Y64.568 E13.10056 F600.000
M106 S255
G1 X67.650 Y65.087 E13.12881 F3600
G1 X67.500 Y65.087 E13.13698
M106 S255
G1 X67.150 Y65.087 E13.15777 F600.000
G1 X67.150 Y70.650 E13.48832
G1 X47.955 Y70.650 E14.62885
G1 X48.200 Y70.044 F7800.000
G1 F1800.000 E13.62885
G92 E0
G1 X69.825 Y65.281 F7800.000
G1 E1.00000 F1800.000
G1 X69.504 Y64.936 E1.02799 F600.000
G1 X69.875 Y64.601 E1.05771
G1 X69.504 Y64.936 F7800.000
G1 X68.496 Y64.926 E1.11763 F600.000
G1 X68.175 Y64.581 E1.14561
G1 X68.496 Y64.926 F7800.000
G1 X68.125 Y65.262 E1.17534 F600.000
G1 F1800.000 E0.17534
G92 E0
G1 X59.500 Y50.000 F7800.000
G1 X68.125 Y55.399 F7800.000
G1 E1.00000 F1800.000
G1 X68.496 Y55.064 E1.02972 F600.000
G1 X68.175 Y54.719 F7800.000
G1 X68.496 Y55.064 E1.05771 F600.000
G1 X69.504 Y55.074 E1.11763
G1 X69.825 Y55.419 F7800.000
G1 X69.504 Y55.074 E1.14561 F600.000
G1 X69.875 Y54.738 E1.17534
G1 F1800.000 E0.17534
G92 E0
G1 X48.500 Y59.000 F7800.000
G1 X65.236 Y56.015 F7800.000
G1 E1.00000 F1800.000
G1 X64.176 Y56.299 E1.06776 F1488.511
G1 X62.394 Y54.517 E1.22338
G1 X62.720 Y53.300 E1.30119
G1 X60.939 Y51.518 E1.45681
G1 X59.721 Y51.844 E1.53462
G1 X59.141 Y51.264 E1.58532
G1 X61.713 Y51.264 E1.74415
G1 X63.235 Y52.786 E1.87706
G1 X64.452 Y52.460 E1.95487
G1 X65.236 Y53.244 E2.02336
G1 X65.236 Y52.215 E2.08689
G1 X64.966 Y51.945 E2.11047
G1 X65.149 Y51.264 E2.15403
G1 X65.736 Y59.647 F7800.000
G1 X65.118 Y59.813 E2.19357 F1488.511
G1 X63.336 Y58.031 E2.34919
G1 X63.662 Y56.814 E2.42700
G1 X61.880 Y55.032 E2.58262
G1 X60.663 Y55.358 E2.66043
G1 X58.881 Y53.576 E2.81605
G1 X59.207 Y52.359 E2.89386
G1 X58.112 Y51.264 E2.98948
G1 X55.540 Y51.264 E3.14831
G1 X55.693 Y51.417 E3.16171
G1 X55.367 Y52.634 E3.23952
G1 X57.149 Y54.416 E3.39514
G1 X58.366 Y54.090 E3.47295
G1 X60.148 Y55.872 E3.62857
G1 X59.822 Y57.089 E3.70638
G1 X61.604 Y58.871 E3.86200
G1 X62.821 Y58.545 E3.93981
G1 X64.603 Y60.327 E4.09543
G1 X64.277 Y61.544 E4.17323
G1 X65.736 Y63.003 E4.30066
G1 X65.576 Y63.173 E4.31510
G1 X65.236 Y63.532 F7800.000
G1 X63.763 Y62.059 E4.44378 F1488.511
G1 X62.546 Y62.385 E4.52159
G1 X60.764 Y60.603 E4.67721
G1 X61.090 Y59.386 E4.75502
G1 X59.308 Y57.604 E4.91064
G1 X58.091 Y57.930 E4.98845
G1 X56.309 Y56.148 E5.14407
G1 X56.635 Y54.931 E5.22188
G1 X54.853 Y53.149 E5.37749
G1 X53.636 Y53.475 E5.45530
G1 X51.854 Y51.693 E5.61092
G1 X51.969 Y51.264 E5.63836
G1 X49.764 Y52.175 E5.78570
G1 X50.122 Y52.533 E5.81702
G1 X51.339 Y52.207 E5.89483
G1 X53.121 Y53.989 E6.05045
G1 X52.795 Y55.206 E6.12826
G1 X54.577 Y56.988 E6.28387
G1 X55.794 Y56.662 E6.36168
G1 X57.576 Y58.444 E6.51730
G1 X57.250 Y59.661 E6.59511
G1 X59.032 Y61.443 E6.75073
G1 X60.249 Y61.117 E6.82854
G1 X62.031 Y62.899 E6.98416
G1 X61.705 Y64.116 E7.06197
G1 X63.487 Y65.898 E7.21759
G1 X64.704 Y65.572 E7.29540
G1 X65.236 Y66.104 E7.34186
G1 X63.753 Y68.736 E7.52843
G1 X62.647 Y67.630 E7.62506
G1 X62.973 Y66.413 E7.70287
G1 X61.191 Y64.631 E7.85849
G1 X59.974 Y64.957 E7.93630
G1 X58.192 Y63.175 E8.09192
G1 X58.518 Y61.958 E8.16973
G1 X56.736 Y60.176 E8.32535
G1 X55.519 Y60.502 E8.40316
G1 X53.737 Y58.720 E8.55878
G1 X54.063 Y57.503 E8.63659
G1 X52.281 Y55.721 E8.79221
G1 X51.064 Y56.047 E8.87002
G1 X49.764 Y54.747 E8.98355
G1 X49.764 Y55.776 E9.04708
G1 X50.549 Y56.561 E9.11570
G1 X50.223 Y57.778 E9.19351
G1 X52.005 Y59.560 E9.34912
G1 X53.222 Y59.234 E9.42693
G1 X55.004 Y61.016 E9.58255
G1 X54.678 Y62.233 E9.66036
G1 X56.460 Y64.015 E9.81598
G1 X57.677 Y63.689 E9.89379
G1 X59.459 Y65.471 E10.04941
G1 X59.133 Y66.688 E10.12722
G1 X60.915 Y68.470 E10.28284
G1 X62.132 Y68.144 E10.36065
G1 X62.724 Y68.736 E10.41236
G1 X60.152 Y68.736 E10.57119
G1 X58.619 Y67.203 E10.70512
G1 X57.402 Y67.529 E10.78293
G1 X55.620 Y65.747 E10.93855
G1 X55.946 Y64.530 E11.01636
G1 X54.164 Y62.748 E11.17197
G1 X52.947 Y63.074 E11.24978
G1 X51.165 Y61.292 E11.40540
G1 X51.491 Y60.075 E11.48321
G1 X49.764 Y58.348 E11.63404
G1 X49.764 Y62.044 F7800.000
G1 X50.650 Y61.806 E11.69072 F1488.511
G1 X52.432 Y63.588 E11.84634
G1 X52.106 Y64.805 E11.92415
G1 X53.888 Y66.587 E12.07977
G1 X55.105 Y66.261 E12.15758
G1 X56.887 Y68.043 E12.31319
G1 X56.701 Y68.736 E12.35750
G1 X53.465 Y68.736 E12.55736
G1 X53.048 Y68.319 E12.59381
G1 X53.374 Y67.102 E12.67162
G1 X51.592 Y65.320 E12.82724
G1 X50.375 Y65.646 E12.90505
G1 X49.764 Y65.035 E12.95840
G1 X49.764 Y66.064 E13.02193
G1 X49.860 Y66.160 E13.03036
G1 X49.764 Y66.521 E13.05338
G1 X50.893 Y68.736 E13.20696
G1 X49.764 Y67.607 E13.30557
G1 X49.764 Y68.636 E13.36910
G1 X49.864 Y68.736 E13.37787
G1 X65.236 Y65.075 F7800.000
G1 X65.219 Y65.058 E13.37941 F1488.511
G1 X65.236 Y64.992 E13.38362
G1 F1800.000 E12.38362
G92 E0
G1 Z3.100 F7800.000
G1 X65.750 Y64.160 F7800.000
G1 E1.00000 F1800.000
G1 X65.750 Y69.250 E1.30245 F736.591
G1 X49.250 Y69.250 E2.28285
G1 X49.250 Y50.750 E3.38208
G1 X65.750 Y50.750 E4.36247
G1 X65.750 Y55.840 E4.66492
G1 X66.250 Y55.840 E4.69463
G1 X66.250 Y64.160 E5.18896
G1 X65.855 Y64.160 E5.21243
G1 X66.450 Y64.860 F7800.000
G1 X66.450 Y69.950 E5.51488 F736.591
G1 X48.550 Y69.950 E6.57846
G1 X48.550 Y50.050 E7.76087
G1 X66.450 Y50.050 E8.82445
G1 X66.450 Y55.140 E9.12690
G1 X66.950 Y55.140 E9.15661
G1 X66.950 Y64.860 E9.73413
G1 X66.555 Y64.860 E9.75760
G1 X67.150 Y65.560 F7800.000
G1 X67.150 Y70.650 E10.06005 F600.000
G1 X47.850 Y70.650 E11.20681
G1 X47.850 Y49.350 E12.47241
G1 X67.150 Y49.350 E13.61918
G1 X67.150 Y54.440 E13.92163
G1 X67.500 Y54.440 E13.94242
M106 S255
G1 X67.650 Y54.440 E13.95059 F3600
G1 X67.650 Y54.563 E13.95728
M106 S255
G1 X67.650 Y65.437 E14.60337 F600.000
M106 S255
G1 X67.650 Y65.560 E14.61007 F3600
G1 X67.500 Y65.560 E14.61823
M106 S255
G1 X67.255 Y65.560 E14.63279 F600.000
G1 X66.450 Y65.560 F7800.000
G1 X68.175 Y65.193 F7800.000
G1 X68.379 Y65.553 E14.65741 F600.000
G1 X68.125 Y65.735 E14.67594
